assets/icons/blueMailContainer.svg

<svg width="30" height="30" viewBox="0 0 30 30" fill="none" xmlns="http://www.w3.org/2000/svg">
<rect width="30" height="30" rx="15" fill="#007AFF" fill-opacity="0.15"/>
<path d="M10 12L13.4565 13.9585C14.7308 14.6805 15.2692 14.6805 16.5435 13.9585L20 12" stroke="#007AFF" stroke-width="1.125" stroke-linejoin="round"/>
<path d="M10.0079 15.7378C10.0406 17.2706 10.0569 18.037 10.6225 18.6047C11.188 19.1724 11.9752 19.1922 13.5494 19.2317C14.5197 19.2561 15.4804 19.2561 16.4506 19.2317C18.0249 19.1922 18.812 19.1724 19.3776 18.6047C19.9431 18.037 19.9594 17.2706 19.9921 15.7378C20.0026 15.245 20.0026 14.7551 19.9921 14.2622C19.9594 12.7294 19.9431 11.963 19.3776 11.3953C18.812 10.8276 18.0249 10.8078 16.4506 10.7683C15.4804 10.7439 14.5196 10.7439 13.5494 10.7683C11.9752 10.8078 11.188 10.8276 10.6225 11.3953C10.0569 11.963 10.0406 12.7294 10.0079 14.2622C9.99737 14.7551 9.99738 15.245 10.0079 15.7378Z" stroke="#007AFF" stroke-width="1.125" stroke-linejoin="round"/>
</svg>

<svg xmlns="http://www.w3.org/2000/svg" width="30" height="30" fill="none" viewBox="0 0 30 30"><rect width="30" height="30" fill="#007aff" fill-opacity=".15" rx="15"/><path stroke="#007aff" stroke-linejoin="round" stroke-width="1.125" d="m10 12 3.457 1.959c1.274.722 1.812.722 3.087 0L20 12"/><path stroke="#007aff" stroke-linejoin="round" stroke-width="1.125" d="M10.008 15.738c.033 1.533.049 2.299.615 2.867.565.567 1.352.587 2.926.627.97.024 1.931.024 2.902 0 1.574-.04 2.361-.06 2.927-.627.565-.568.581-1.334.614-2.867q.015-.738 0-1.476c-.033-1.533-.049-2.299-.614-2.867-.566-.567-1.353-.587-2.927-.627a58 58 0 0 0-2.902 0c-1.574.04-2.361.06-2.926.627-.566.568-.582 1.334-.615 2.867q-.015.738 0 1.476Z"/></svg>
